X:1
T:Quindi nascea
T:Giammateo Asola
T:Source : Madrigali a due voci---Venetia---G.Vincenti---1587. Editor : André Vierendeels  (26/04/17).
T:Notes : Original clef C3 ( Fuga di un tempo, una quarta piu alto) Editorial accidentals above tha staff m 39 in T : first "F" ,"(m 41 in A : first "C") notated as eighth note in original print.
T:Quindi nascea
T:©
T:©
T:©
T:©
C:Giammateo Asola
Z:©
%%score [ 1 2 ]
L:1/8
Q:1/4=120
M:4/4
K:F
V:1 treble nm="Alto" snm="A"
V:2 treble-8 nm="Tenor" snm="T"
V:1
 z8 | z8 | G4 G2 G2 | F4 G4 | E2 C2 E2 F2 | G4 C4 | z2 c2 c2 G2 | A3 B c2 A2 | B3 B A2 A2 | %9
w: ||Quin- di na-|scea che|stan- do'in un com-|po- sto,|con- fu- so'i|cie- * * lo'e|gl'e- le- men- t'in-|
 G4 F2 B2 | G4 B4 | A2 A2 G4 | A4 z2 c2 | B2 G2 A4 | G2 B2 A4 | G2 c4 B2 | c4 z2 G2 | A2 B2 c4 | %18
w: fie- me, fa-|cean un|cor- po'in- fer-|mo, e|mal dis- o-|sto, e mal|dis- po- *|sto, per|do- nar for-|
 A2 B4 A2 | G2 G2 F4 | G4 z2 D2 | F2 E2 D2 D2 | C4 D2 G2- | G2 F2 B4 | A2 c2 B2 A2 | G2 G2 C2 c2 | %26
w: ma' mal lo-|ca- to se-|me, anzi'|e- ra con- tra-|rio a l'altr'|_ op- po-|sto, per le par-|ti di mez' e|
 B2 A2 GABG | AB c4 B2 | c2 G2 A2 c2 | B2 A2 G4 | F4 z2 F2 | G2 B2 A2 A2 | G3 F E2 D2 | C4 G4 | %34
w: per l'es- tre- * * *||me, fe'a guerr' il|len' al gra-|ve, fe'a|guerr' il len' al|gra- ve'il mol- le'al|cal- do,|
 z2 c2 c2 B2 | c2 c2 A2 A2 | B2 A2 G4 | F4 z2 G2- | G2 B4 A2 | G4 F3 G/A/ | B2 c4 B2 | c2 A2 GFGA | %42
w: con- tra'il sec-|co l'hu- mor col|fredd' il cal-|do, col|_ fredd' il|cal- * * *||do, col fredd' _ _ _|
 B2 A2 G4 | F4 z2 c2- | c2 B4 A2 | G3 F E2 DC | D2 C4 B,2 | C2 c4 B2- | B2 A2 G4 | F4 z2 c2- | %50
w: _ il cal-|do, col|_ fredd' il|cal- * * * *||do, col fredd'|_ il cal-|do, col|
 c2 B4 A2- | AG G4 F2 | G8 |] %53
w: _ fredd' il|_ _ cal- *|do.|
V:2
 d4 d2 d2 | c4 d4 | B2 G2 B2 c2 | d4 G4 | z2 g2 g2 d2 | e3 f g2 e2 | f3 f e2 e2 | d4 c2 f2 | %8
w: Quin- di na-|scea che|stan- do'in un com-|po- sto,|con- fu- so'i|cie- * * lo'e|gl'e- le- men- t'in-|fie- me, fa-|
 d4 f4 | e2 e2 d4 | e4 z2 g2 | f2 d2 e4 | d2 f2 e4 | d2 g4 f2 | g4 z2 d2 | e2 f2 g4 | e2 f4 e2 | %17
w: cean un|cor- po'in- fer-|mo e|mal dis- po-|sto, e mal|dis- po- *|sto, per|do- nar for-|ma' mal lo-|
 d2 d2 c4 | d4 z2 A2 | c2 B2 A2 A2 | G4 A2 d2- | d2 c2 f4 | e2 g2 f2 e2 | d2 d2 G2 g2 | %24
w: ca- to se-|me, an-|zi'e- ra con tra-|rio a l'altr'|_ op- po-|sto, per le par-|ti di mez' e|
 f2 e2 defd | ef g4 f2 | g2 d2 e2 g2 | f2 e2 d4 | c4 z2 c2 | d2 f2 e2 e2 | d3 c B2 A2 | G4 d4 | %32
w: per l'es- tre- * * *||me fe'a guerr' il|len' al gra-|ve, fe'a|guerr' il len' al|gra- ve'il mol- le'al|cal- do,|
 z2 g2 g2 f2 | g2 g2 e2 e2 | f2 e2 d4 | c4 z2 d2- | d2 f4 e2 | d4 c3 d/e/ | f2 g4 f2 | g2 e2 dcde | %40
w: con- tra'il sec-|co l'hu- mor col|fredd' il cal-|do, col|_ fredd'- il|cal- * * *||do, col fredd'- * * *|
 f2 e2 d4 | c4 z2 g2- |"^-natural" g2 f4 e2 | d3 c B2 AG | A2 G4 F2 | G2 g4 f2- | f2 e2 d4 | %47
w: * il cal-|do, col|_ fredd' il|cal- * * * *||do,- col fredd'|_ il cal-|
 c4 z2 g2- |"^#" g2 f4 e2- | ed d4 c2 | d2 d4 c2- | c2 B2 A4 | G8 |] %53
w: do, col|fredd' _ il|_ _ cal- *|do, col fredd'|_ il cal-|do.|

